symbols/web/blender/materialsymbolsoutlined/blender_wght300_24px.svg

<svg xmlns="http://www.w3.org/2000/svg" height="24" width="24"><path d="M8 21.5q-.625 0-1.062-.438Q6.5 20.625 6.5 20v-1q0-1.1.5-2.038.5-.937 1.4-1.587l-.675-4.525h-1.9q-.75 0-1.275-.525-.525-.525-.525-1.275V5.3q0-.75.525-1.275.525-.525 1.275-.525h4.625v-1h3.1v1h3.875L15.6 15.375q.9.65 1.4 1.587.5.938.5 2.038v1q0 .625-.438 1.062-.437.438-1.062.438ZM7.5 9.35 6.825 5h-1q-.125 0-.212.1-.088.1-.088.2v3.75q0 .1.088.2.087.1.212.1Zm4.5 9.525q.375 0 .625-.25t.25-.625q0-.375-.25-.625t-.625-.25q-.375 0-.625.25t-.25.625q0 .375.25.625t.625.25ZM9.775 14.5h4.45l1.45-9.5H8.35ZM8 20h8v-1q0-1.25-.875-2.125T13 16h-2q-1.25 0-2.125.875T8 19Zm4-4Z"/></svg>

<svg xmlns="http://www.w3.org/2000/svg" height="24" width="24"><path d="M8 21.5Q7.375 21.5 6.938 21.062Q6.5 20.625 6.5 20V19Q6.5 17.9 7 16.962Q7.5 16.025 8.4 15.375L7.725 10.85H5.825Q5.075 10.85 4.55 10.325Q4.025 9.8 4.025 9.05V5.3Q4.025 4.55 4.55 4.025Q5.075 3.5 5.825 3.5H10.45V2.5H13.55V3.5H17.425L15.6 15.375Q16.5 16.025 17 16.962Q17.5 17.9 17.5 19V20Q17.5 20.625 17.062 21.062Q16.625 21.5 16 21.5ZM7.5 9.35 6.825 5H5.825Q5.7 5 5.613 5.1Q5.525 5.2 5.525 5.3V9.05Q5.525 9.15 5.613 9.25Q5.7 9.35 5.825 9.35ZM12 18.875Q12.375 18.875 12.625 18.625Q12.875 18.375 12.875 18Q12.875 17.625 12.625 17.375Q12.375 17.125 12 17.125Q11.625 17.125 11.375 17.375Q11.125 17.625 11.125 18Q11.125 18.375 11.375 18.625Q11.625 18.875 12 18.875ZM9.775 14.5H14.225L15.675 5H8.35ZM8 20H16V19Q16 17.75 15.125 16.875Q14.25 16 13 16H11Q9.75 16 8.875 16.875Q8 17.75 8 19ZM12 16Q12 16 12 16Q12 16 12 16Q12 16 12 16Q12 16 12 16Z"/></svg>
